fs/weather_snow_shower_day_20_filled.svg

<svg viewBox="0 0 20 20" fill="none" xmlns="http://www.w3.org/2000/svg" height="1em" width="1em">
  <path d="M9.49988 16.9998C9.77603 16.9998 9.99988 17.2237 9.99988 17.4998C9.99988 17.776 9.77603 17.9998 9.49988 17.9998C9.22374 17.9998 8.99988 17.776 8.99988 17.4998C8.99988 17.2237 9.22374 16.9998 9.49988 16.9998ZM12.4999 16.9998C12.776 16.9998 12.9999 17.2237 12.9999 17.4998C12.9999 17.776 12.776 17.9998 12.4999 17.9998C12.2237 17.9998 11.9999 17.776 11.9999 17.4998C11.9999 17.2237 12.2237 16.9998 12.4999 16.9998ZM7.99988 15.9998C8.27603 15.9998 8.49988 16.2237 8.49988 16.4998C8.49988 16.776 8.27603 16.9998 7.99988 16.9998C7.72374 16.9998 7.49988 16.776 7.49988 16.4998C7.49988 16.2237 7.72374 15.9998 7.99988 15.9998ZM10.9999 15.9998C11.276 15.9998 11.4999 16.2237 11.4999 16.4998C11.4999 16.776 11.276 16.9998 10.9999 16.9998C10.7237 16.9998 10.4999 16.776 10.4999 16.4998C10.4999 16.2237 10.7237 15.9998 10.9999 15.9998ZM13.9999 15.9998C14.276 15.9998 14.4999 16.2237 14.4999 16.4998C14.4999 16.776 14.276 16.9998 13.9999 16.9998C13.7237 16.9998 13.4999 16.776 13.4999 16.4998C13.4999 16.2237 13.7237 15.9998 13.9999 15.9998ZM10.9999 5.99983C13.4644 5.99983 14.8626 7.57343 15.0659 9.47382L15.1281 9.47382C16.7141 9.47382 17.9999 10.7109 17.9999 12.2368C17.9999 13.7628 16.7141 14.9998 15.1281 14.9998H6.87168C5.28563 14.9998 3.99988 13.7628 3.99988 12.2368C3.99988 10.7109 5.28563 9.47382 6.8717 9.47382L6.93388 9.47382C7.1384 7.56094 8.53532 5.99983 10.9999 5.99983ZM3.80311 8.70064C3.88302 8.93273 3.78225 9.18334 3.57549 9.29931L3.49313 9.33619L2.69173 9.61213C2.43063 9.70204 2.14609 9.56325 2.05619 9.30216C1.97627 9.07007 2.07705 8.81946 2.2838 8.70349L2.36616 8.66661L3.16757 8.39067C3.42866 8.30076 3.71321 8.43954 3.80311 8.70064ZM8.91916 4.50006C9.25129 4.66205 9.54379 4.8727 9.79229 5.11924C8.03029 5.48378 6.76274 6.65312 6.24936 8.27599L6.18405 8.50007L6.13777 8.687L5.97249 8.71723C5.52056 8.8103 5.09827 8.98355 4.72195 9.22129C4.12388 8.29047 4.01224 7.07823 4.53311 6.0103C5.32724 4.38208 7.29095 3.70593 8.91916 4.50006ZM2.9157 4.6696L3.00001 4.70176L3.76181 5.07331C4.01001 5.19436 4.11308 5.4937 3.99203 5.74189C3.88442 5.96251 3.63596 6.06846 3.40775 6.00426L3.32344 5.97211L2.56164 5.60055C2.31345 5.4795 2.21038 5.18016 2.33143 4.93197C2.43903 4.71135 2.6875 4.6054 2.9157 4.6696ZM9.98906 2.29523C10.2097 2.40284 10.3156 2.6513 10.2514 2.87951L10.2193 2.96382L9.84771 3.72562C9.72666 3.97381 9.42732 4.07688 9.17913 3.95583C8.95851 3.84823 8.85256 3.59976 8.91676 3.37156L8.94892 3.28725L9.32047 2.52545C9.44153 2.27725 9.74086 2.17418 9.98906 2.29523ZM6.19919 2.26281L6.23607 2.34516L6.51201 3.14657C6.60192 3.40767 6.46313 3.69221 6.20204 3.78211C5.96995 3.86203 5.71934 3.76125 5.60337 3.55449L5.56649 3.47214L5.29055 2.67073C5.20064 2.40963 5.33942 2.12509 5.60052 2.03519C5.83261 1.95528 6.08322 2.05605 6.19919 2.26281Z" fill="#212121"/>
</svg>

<svg viewBox="0 0 20 20" fill="none" xmlns="http://www.w3.org/2000/svg" height="1em" width="1em">
  <path d="M9.5 17a.5.5 0 1 1 0 1 .5.5 0 0 1 0-1Zm3 0a.5.5 0 1 1 0 1 .5.5 0 0 1 0-1ZM8 16a.5.5 0 1 1 0 1 .5.5 0 0 1 0-1Zm3 0a.5.5 0 1 1 0 1 .5.5 0 0 1 0-1Zm3 0a.5.5 0 1 1 0 1 .5.5 0 0 1 0-1ZM11 6c2.464 0 3.863 1.573 4.066 3.474h.062c1.586 0 2.872 1.237 2.872 2.763C18 13.763 16.714 15 15.128 15H6.872C5.286 15 4 13.763 4 12.237c0-1.526 1.286-2.763 2.872-2.763h.062C7.138 7.56 8.535 6 11 6ZM3.803 8.7a.5.5 0 0 1-.228.6l-.082.036-.801.276a.5.5 0 0 1-.408-.909l.082-.036.802-.276a.5.5 0 0 1 .635.31ZM8.92 4.5c.332.162.625.373.873.62-1.762.364-3.03 1.533-3.543 3.156l-.065.224-.046.187-.166.03a3.76 3.76 0 0 0-1.25.504A3.28 3.28 0 0 1 8.919 4.5Zm-6.003.17L3 4.702l.762.371a.5.5 0 0 1-.354.931l-.085-.032-.761-.371a.5.5 0 0 1 .354-.931ZM9.99 2.295a.5.5 0 0 1 .262.585l-.032.084-.371.762a.5.5 0 0 1-.931-.354l.032-.085.371-.762a.5.5 0 0 1 .67-.23ZM6.2 2.263l.037.082.276.802a.5.5 0 0 1-.909.407l-.037-.082-.275-.801a.5.5 0 0 1 .908-.408Z" fill="#212121"/>
</svg>
